priv/static/svgs/icons_new/sport-floorball.svg

<svg width="32" height="32" viewBox="0 0 32 32" fill="none" xmlns="http://www.w3.org/2000/svg">
<path d="M14.1589 6.55891C14.1117 6.70052 14.1117 6.88934 14.1117 7.03096C14.1117 8.06947 14.9614 8.91915 15.9999 8.91915C17.0384 8.91915 17.8881 8.06947 17.8881 7.03096C17.8881 6.88934 17.8881 6.70052 17.8409 6.55891M17.8881 25.4409C17.8881 24.4024 17.0384 23.5527 15.9999 23.5527C14.9614 23.5527 14.1117 24.4024 14.1117 25.4409M6.55906 17.8881C7.59757 17.8881 8.44726 17.0384 8.44726 15.9999C8.44726 14.9614 7.59757 14.1117 6.55906 14.1117M25.4407 14.1117C24.4022 14.1117 23.5525 14.9614 23.5525 15.9999C23.5525 17.0384 24.4022 17.8881 25.4407 17.8881M15.9999 17.8882C14.9614 17.8882 14.1117 17.0385 14.1117 16C14.1117 14.9615 14.9614 14.1118 15.9999 14.1118C17.0384 14.1118 17.8881 14.9615 17.8881 16C17.8881 17.0385 17.0384 17.8882 15.9999 17.8882ZM12.2237 14.1117C11.1852 14.1117 10.3355 13.262 10.3355 12.2235C10.3355 11.185 11.1852 10.3353 12.2237 10.3353C13.2622 10.3353 14.1119 11.185 14.1119 12.2235C14.1119 13.262 13.2622 14.1117 12.2237 14.1117ZM19.7764 14.1117C18.7379 14.1117 17.8882 13.262 17.8882 12.2235C17.8882 11.185 18.7379 10.3353 19.7764 10.3353C20.8149 10.3353 21.6646 11.185 21.6646 12.2235C21.6646 13.262 20.8149 14.1117 19.7764 14.1117ZM19.7764 21.6646C18.7379 21.6646 17.8882 20.8149 17.8882 19.7764C17.8882 18.7379 18.7379 17.8882 19.7764 17.8882C20.8149 17.8882 21.6646 18.7379 21.6646 19.7764C21.6646 20.8149 20.8149 21.6646 19.7764 21.6646ZM12.2237 21.6646C11.1852 21.6646 10.3355 20.8149 10.3355 19.7764C10.3355 18.7379 11.1852 17.8882 12.2237 17.8882C13.2622 17.8882 14.1119 18.7379 14.1119 19.7764C14.1119 20.8149 13.2622 21.6646 12.2237 21.6646ZM16 25.5C10.7524 25.5 6.5 21.2476 6.5 16C6.5 10.7524 10.7524 6.5 16 6.5C21.2476 6.5 25.5 10.7524 25.5 16C25.5 21.2476 21.2476 25.5 16 25.5Z" stroke="black" stroke-miterlimit="10"/>
</svg>

<svg width="32" height="32" viewBox="0 0 32 32" fill="none" xmlns="http://www.w3.org/2000/svg">
  <symbol id="item" viewBox="0 0 32 32" stroke-width="1" fill="none">
    <path d="M14.159 6.559c-.047.142-.047.33-.047.472 0 1.038.85 1.888 1.888 1.888 1.038 0 1.888-.85 1.888-1.888 0-.142 0-.33-.047-.472m.047 18.882c0-1.039-.85-1.888-1.888-1.888-1.039 0-1.888.85-1.888 1.888m-7.553-7.553c1.039 0 1.888-.85 1.888-1.888 0-1.039-.85-1.888-1.888-1.888m18.882 0c-1.039 0-1.889.85-1.889 1.888 0 1.038.85 1.888 1.889 1.888m-9.441 0A1.894 1.894 0 0 1 14.112 16c0-1.039.85-1.888 1.888-1.888 1.038 0 1.888.85 1.888 1.888 0 1.038-.85 1.888-1.888 1.888Zm-3.776-3.776a1.894 1.894 0 0 1-1.889-1.889c0-1.038.85-1.888 1.889-1.888 1.038 0 1.888.85 1.888 1.888 0 1.039-.85 1.889-1.888 1.889Zm7.552 0a1.894 1.894 0 0 1-1.888-1.889c0-1.038.85-1.888 1.888-1.888 1.039 0 1.889.85 1.889 1.888 0 1.039-.85 1.889-1.889 1.889Zm0 7.553a1.894 1.894 0 0 1-1.888-1.889c0-1.038.85-1.888 1.888-1.888 1.039 0 1.889.85 1.889 1.888 0 1.039-.85 1.889-1.889 1.889Zm-7.552 0a1.894 1.894 0 0 1-1.889-1.889c0-1.038.85-1.888 1.889-1.888 1.038 0 1.888.85 1.888 1.888 0 1.039-.85 1.889-1.888 1.889ZM16 25.5A9.499 9.499 0 0 1 6.5 16c0-5.248 4.252-9.5 9.5-9.5s9.5 4.252 9.5 9.5-4.252 9.5-9.5 9.5Z" stroke="currentColor" stroke-miterlimit="10"/>
  </symbol>
</svg>
